wp-content/themes/quarkexpeditions/src/assets/svg/mountains.svg

<svg class="icon icon-mountains" width="33" height="32" viewBox="0 0 33 32" fill="none" xmlns="http://www.w3.org/2000/svg">
<circle cx="16.2" cy="16" r="16" fill="#ECEEF2"/>
<path fill-rule="evenodd" clip-rule="evenodd" d="M14.5807 9C14.7272 9.00175 14.8785 9.08948 14.9859 9.24876L19.0656 16.2498L20.2738 14.1674C20.3503 14.0347 20.4975 13.9457 20.6505 13.9399C20.8153 13.9334 20.9803 14.0244 21.0628 14.1674L26.0948 22.8242C26.3658 23.274 26.0742 23.5784 25.6612 23.5776H6.64179C6.32529 23.5754 6.09269 23.1694 6.25089 22.8953L14.197 9.24904C14.2926 9.08262 14.4343 8.99854 14.5807 9.00028L14.5807 9ZM14.794 11.914C14.6209 11.9061 14.4584 11.997 14.3747 12.1487L10.6504 18.5096C10.5885 18.6142 10.5708 18.7392 10.6012 18.8569C10.6319 18.9746 10.7078 19.0752 10.8129 19.1367C10.9177 19.1981 11.0427 19.2153 11.1603 19.1842C11.2779 19.1532 11.3783 19.0766 11.4392 18.9714L15.1635 12.6032L15.1636 12.6033C15.2464 12.4658 15.2507 12.2949 15.1749 12.1534C15.099 12.0119 14.9544 11.921 14.794 11.9139L14.794 11.914Z" fill="#232933"/>
</svg>

<svg class="icon icon-mountains" width="33" height="32" fill="none" xmlns="http://www.w3.org/2000/svg"><circle cx="16.2" cy="16" r="16" fill="#ECEEF2"/><path fill-rule="evenodd" clip-rule="evenodd" d="M14.58 9c.147.002.299.09.406.249l4.08 7 1.208-2.082a.463.463 0 0 1 .377-.227.465.465 0 0 1 .412.227l5.032 8.657c.27.45-.02.754-.434.754H6.641c-.316-.003-.548-.409-.39-.683L14.197 9.25c.096-.166.237-.25.384-.249Zm.214 2.914a.455.455 0 0 0-.42.235l-3.724 6.36a.457.457 0 1 0 .79.462l3.724-6.368a.455.455 0 0 0-.37-.69v.001Z" fill="#232933"/></svg>
